X: 66
T:Richmond Reel
R:Reel
S:Battlefield Band album
Z:added by alf.warnock@rogers.com
M:4/4
L:1/8
K:D
A2 f2 fgfe|dedB A2 d2|cdcB A2 AB|AF G2 F2 E2|
D2 f2 fgfe|dedB A2d2|cdcB A2 d2|e2 c2 "Fine" d4:|
K:A
:|efed cde2|afed cde2|B2 e2 e2 ef|ecd2 c2 B2|
efed cde2|afed cde2|B2 e2 eefg|[1 a4 a4:|[2 a4 =g4|]

